!!!SOCIAL_FUNCTION:	songs for success in ball game
!!!PDT:	1956
!!!OTL: No_227_Ball_Game_Song_(j).krn
!!!LANG: Non-Tone
!!!LING_GROUP: Muskogean
!!!REG: Florida
**kern
*staff1
=1-
*clefF4
*k[b-]
*M2/4
8.c\L
16d\Jk
8c\L
16B-\L
16B-\JJ
=2
8A\L
8F\J
8F\
8r
=3
8.B-\L
16c\Jk
8B-\L
16A\L
16F\JJ
=4||
*M3/4
8A\L
8F\J
8F\L
16c\L
16c\JJ
8B-\L
16A\L
16F\JJ
=5||
*M2/4
8A\L
8F\J
8F\
8r
=6
8.F\L
16A\Jk
8F\L
16B-\L
16B-\JJ
=7
8A\L
8F\J
8F\
8r
==
*-
